src/images/feedback__overlay.svg

<svg width="1009" height="1009" fill="none" xmlns="http://www.w3.org/2000/svg"><mask id="a" style="mask-type:alpha" maskUnits="userSpaceOnUse" x="0" y="0" width="1009" height="1009"><path fill="#fff" d="M0 0h1009v1009H0z"/></mask><g mask="url(#a)"><path d="M215.952 367.629a8.723 8.723 0 0 1 .221 3.367c6.707.841 12.129 4.193 14.2 9.531 3.511 9.052-3.944 20.385-16.652 25.315a34.486 34.486 0 0 1-4.997 1.518 6.888 6.888 0 0 1-9.478 8.704c-2.14 5.956-7.165 10.843-13.87 12.64-8.19 2.194-16.516-.858-21.232-7.067a14.28 14.28 0 0 1-4.468 2.069c-7.349 1.969-14.835-2.143-16.722-9.185-.771-2.877-.488-5.798.617-8.381-8.396-.837-14.742-4.417-16.241-10.012-1.993-7.437 5.212-16.074 16.78-21.142a12.042 12.042 0 0 1 8.215-7.54 12.014 12.014 0 0 1 4.793-.297c.2-8.152 6.256-15.735 15.223-18.138 10.309-2.762 20.71 2.329 23.822 11.442l.038-.01c9.185-2.461 18.028.756 19.751 7.186Z" fill="url(#b)"/><path d="M357.539 259.363a6.624 6.624 0 0 1-.17 2.548c4.946 1.301 8.677 4.357 9.697 8.567 1.728 7.14-4.996 14.895-15.019 17.322a26.073 26.073 0 0 1-3.9.639 5.212 5.212 0 0 1-7.979 5.581c-2.2 4.253-6.457 7.416-11.665 8.093-6.362.828-12.302-2.294-15.218-7.422a10.804 10.804 0 0 1-3.558 1.106c-5.708.742-10.912-3.091-11.624-8.561a9.682 9.682 0 0 1 1.301-6.224c-6.213-1.466-10.615-4.786-11.18-9.132-.751-5.777 5.515-11.535 14.698-14.18a9.111 9.111 0 0 1 6.915-4.833 9.08 9.08 0 0 1 3.624.256c.965-6.094 6.265-11.177 13.231-12.082 8.007-1.042 15.299 3.816 16.723 10.962l.029-.003c7.135-.928 13.445 2.368 14.095 7.363Z" fill="url(#c)"/><path d="M843.092 375.464c-1.738-1.523-2.017-4.162-.848-6.406-9.608.156-17.62-5.419-17.982-12.583-.272-5.359 3.814-10.11 9.904-12.359a3.766 3.766 0 0 1-.591-1.84c-.143-3.301 4.361-6.178 10.061-6.424a17.378 17.378 0 0 1 3.117.14c1.423-5.681 6.967-10.063 13.772-10.357 8.078-.35 14.885 5.192 15.247 12.394.45-.094.916-.154 1.394-.174 4.126-.179 7.601 2.579 7.788 6.169 8.315 2.093 14.091 6.804 13.767 11.897-.271 4.274-4.769 7.737-11.239 9.346a8.056 8.056 0 0 1 .977 3.509c.208 4.804-3.883 8.883-9.138 9.111a10.25 10.25 0 0 1-4.021-.625c-2.451 3.574-6.943 6.072-12.174 6.299-6.422.278-12.031-2.95-14.234-7.691-1.95 1.044-4.242.959-5.8-.406Z" fill="url(#d)"/><path d="M729.103 193.531c1.738-2.261 5.147-2.261 6.885 0l3.87 5.034c.331.431.931.551 1.403.279l5.501-3.17c2.471-1.424 5.621-.119 6.362 2.635l1.648 6.132c.142.525.65.865 1.189.794l6.296-.823c2.828-.37 5.239 2.041 4.869 4.869l-.823 6.296a1.085 1.085 0 0 0 .794 1.189l6.132 1.648c2.754.741 4.059 3.891 2.635 6.362l-3.17 5.501a1.086 1.086 0 0 0 .279 1.403l5.034 3.87c2.261 1.738 2.261 5.147 0 6.885l-5.034 3.87a1.086 1.086 0 0 0-.279 1.403l3.17 5.501c1.424 2.471.119 5.621-2.635 6.362l-6.132 1.648c-.525.142-.865.65-.794 1.189l.823 6.296c.37 2.828-2.041 5.239-4.869 4.869l-6.296-.823a1.086 1.086 0 0 0-1.189.794l-1.648 6.132c-.741 2.754-3.891 4.059-6.362 2.635l-5.501-3.17a1.086 1.086 0 0 0-1.403.279l-3.87 5.034c-1.738 2.261-5.147 2.261-6.885 0l-3.87-5.034a1.086 1.086 0 0 0-1.403-.279l-5.501 3.17c-2.471 1.424-5.621.119-6.362-2.635l-1.648-6.132a1.086 1.086 0 0 0-1.19-.794l-6.295.823c-2.828.37-5.239-2.041-4.869-4.869l.823-6.296a1.086 1.086 0 0 0-.795-1.189l-6.131-1.648c-2.754-.741-4.059-3.891-2.635-6.362l3.17-5.501a1.087 1.087 0 0 0-.279-1.403l-5.034-3.87c-2.261-1.738-2.261-5.147 0-6.885l5.034-3.87c.431-.331.55-.931.279-1.403l-3.17-5.501c-1.424-2.471-.119-5.621 2.635-6.361l6.131-1.649c.526-.141.866-.65.795-1.189l-.823-6.296c-.37-2.828 2.041-5.239 4.869-4.869l6.295.823a1.086 1.086 0 0 0 1.19-.794l1.648-6.132c.741-2.754 3.891-4.059 6.362-2.635l5.501 3.17a1.086 1.086 0 0 0 1.403-.279l3.87-5.034Z" fill="url(#e)"/><circle cx="732.545" cy="238.993" fill="url(#f)" r="33.655"/></g><defs><linearGradient id="b" x1="168.622" y1="350.008" x2="189.418" y2="427.62" gradientUnits="userSpaceOnUse"><stop stop-color="#fff"/><stop offset="1" stop-color="#F4FDFF" stop-opacity=".76"/></linearGradient><linearGradient id="c" x1="323.803" y1="241.416" x2="331.643" y2="301.705" gradientUnits="userSpaceOnUse"><stop stop-color="#fff"/><stop offset="1" stop-color="#F4FDFF" stop-opacity=".76"/></linearGradient><linearGradient id="d" x1="866.252" y1="326.215" x2="857.063" y2="382.947" gradientUnits="userSpaceOnUse"><stop stop-color="#fff"/><stop offset="1" stop-color="#F4FDFF" stop-opacity=".76"/></linearGradient><radialGradient id="e" cx="0" cy="0" r="1" gradientUnits="userSpaceOnUse" gradientTransform="matrix(0 49.9398 -49.9401 0 732.545 238.993)"><stop offset=".445" stop-color="#FFE178"/><stop offset="1" stop-color="#FFF387"/></radialGradient><radialGradient id="f" cx="0" cy="0" r="1" gradientUnits="userSpaceOnUse" gradientTransform="matrix(0 33.6551 -33.6553 0 732.545 238.993)"><stop stop-color="#FFE380"/><stop offset="1" stop-color="#FFCD1E"/></radialGradient></defs></svg>

<svg width="1009" height="1009" viewBox="0 0 1009 1009" fill="none" xmlns="http://www.w3.org/2000/svg">
<mask id="mask0_653_7857" style="mask-type:alpha" maskUnits="userSpaceOnUse" x="0" y="0" width="1009" height="1009">
<rect width="1009" height="1009" fill="white"/>
</mask>
<g mask="url(#mask0_653_7857)">
<path d="M215.952 367.629C216.249 368.738 216.315 369.869 216.173 370.996C222.88 371.837 228.302 375.189 230.373 380.527C233.884 389.579 226.429 400.912 213.721 405.842C212.056 406.488 210.382 406.992 208.724 407.36C208.821 407.605 208.906 407.859 208.976 408.12C209.96 411.794 207.78 415.57 204.106 416.555C202.413 417.008 200.699 416.79 199.246 416.064C197.106 422.02 192.081 426.907 185.376 428.704C177.186 430.898 168.86 427.846 164.144 421.637C162.828 422.553 161.325 423.264 159.676 423.706C152.327 425.675 144.841 421.563 142.954 414.521C142.183 411.644 142.466 408.723 143.571 406.14C135.175 405.303 128.829 401.723 127.33 396.128C125.337 388.691 132.542 380.054 144.11 374.986C145.408 371.411 148.373 368.505 152.325 367.446C153.938 367.014 155.562 366.93 157.118 367.149C157.318 358.997 163.374 351.414 172.341 349.011C182.65 346.249 193.051 351.34 196.163 360.453L196.201 360.443C205.386 357.982 214.229 361.199 215.952 367.629Z" fill="url(#paint0_linear_653_7857)"/>
<path d="M357.539 259.363C357.651 260.224 357.587 261.08 357.369 261.911C362.315 263.212 366.046 266.268 367.066 270.478C368.794 277.618 362.07 285.373 352.047 287.8C350.733 288.118 349.428 288.329 348.147 288.439C348.196 288.633 348.233 288.831 348.26 289.034C348.631 291.888 346.618 294.503 343.764 294.874C342.449 295.045 341.185 294.71 340.168 294.02C337.968 298.273 333.711 301.436 328.503 302.113C322.141 302.941 316.201 299.819 313.285 294.691C312.206 295.247 311.008 295.63 309.727 295.797C304.019 296.539 298.815 292.706 298.103 287.236C297.813 285.001 298.317 282.839 299.404 281.012C293.191 279.546 288.789 276.226 288.224 271.88C287.473 266.103 293.739 260.345 302.922 257.7C304.253 255.149 306.767 253.266 309.837 252.867C311.09 252.704 312.316 252.803 313.461 253.123C314.426 247.029 319.726 241.946 326.692 241.041C334.699 239.999 341.991 244.857 343.415 252.003L343.444 252C350.579 251.072 356.889 254.368 357.539 259.363Z" fill="url(#paint1_linear_653_7857)"/>
<path d="M843.092 375.464C841.354 373.941 841.075 371.302 842.244 369.058C832.636 369.214 824.624 363.639 824.262 356.475C823.99 351.116 828.076 346.365 834.166 344.116C833.81 343.544 833.603 342.926 833.575 342.276C833.432 338.975 837.936 336.098 843.636 335.852C844.718 335.805 845.765 335.856 846.753 335.992C848.176 330.311 853.72 325.929 860.525 325.635C868.603 325.285 875.41 330.827 875.772 338.029C876.222 337.935 876.688 337.875 877.166 337.855C881.292 337.676 884.767 340.434 884.954 344.024C893.269 346.117 899.045 350.828 898.721 355.921C898.45 360.195 893.952 363.658 887.482 365.267C888.058 366.327 888.404 367.514 888.459 368.776C888.667 373.58 884.576 377.659 879.321 377.887C877.898 377.949 876.535 377.721 875.3 377.262C872.849 380.836 868.357 383.334 863.126 383.561C856.704 383.839 851.095 380.611 848.892 375.87C846.942 376.914 844.65 376.829 843.092 375.464Z" fill="url(#paint2_linear_653_7857)"/>
<path d="M729.103 193.531C730.841 191.27 734.25 191.27 735.988 193.531L739.858 198.565C740.189 198.996 740.789 199.116 741.261 198.844L746.762 195.674C749.233 194.25 752.383 195.555 753.124 198.309L754.772 204.441C754.914 204.966 755.422 205.306 755.961 205.235L762.257 204.412C765.085 204.042 767.496 206.453 767.126 209.281L766.303 215.577C766.232 216.116 766.572 216.625 767.097 216.766L773.229 218.414C775.983 219.155 777.288 222.305 775.864 224.776L772.694 230.277C772.422 230.749 772.542 231.349 772.973 231.68L778.007 235.55C780.268 237.288 780.268 240.697 778.007 242.435L772.973 246.305C772.542 246.637 772.422 247.236 772.694 247.708L775.864 253.209C777.288 255.68 775.983 258.83 773.229 259.571L767.097 261.219C766.572 261.361 766.232 261.869 766.303 262.408L767.126 268.704C767.496 271.532 765.085 273.943 762.257 273.573L755.961 272.75C755.422 272.679 754.914 273.019 754.772 273.544L753.124 279.676C752.383 282.43 749.233 283.735 746.762 282.311L741.261 279.141C740.789 278.869 740.189 278.989 739.858 279.42L735.988 284.454C734.25 286.715 730.841 286.715 729.103 284.454L725.233 279.42C724.901 278.989 724.302 278.869 723.83 279.141L718.329 282.311C715.858 283.735 712.708 282.43 711.967 279.676L710.319 273.544C710.177 273.019 709.669 272.679 709.129 272.75L702.834 273.573C700.006 273.943 697.595 271.532 697.965 268.704L698.788 262.408C698.859 261.869 698.519 261.361 697.993 261.219L691.862 259.571C689.108 258.83 687.803 255.68 689.227 253.209L692.397 247.708C692.668 247.236 692.549 246.637 692.118 246.305L687.084 242.435C684.823 240.697 684.823 237.288 687.084 235.55L692.118 231.68C692.549 231.349 692.668 230.749 692.397 230.277L689.227 224.776C687.803 222.305 689.108 219.155 691.862 218.415L697.993 216.766C698.519 216.625 698.859 216.116 698.788 215.577L697.965 209.281C697.595 206.453 700.006 204.042 702.834 204.412L709.129 205.235C709.669 205.306 710.177 204.966 710.319 204.441L711.967 198.309C712.708 195.555 715.858 194.25 718.329 195.674L723.83 198.844C724.302 199.116 724.901 198.996 725.233 198.565L729.103 193.531Z" fill="url(#paint3_radial_653_7857)"/>
<ellipse cx="732.545" cy="238.993" rx="33.6553" ry="33.6551" fill="url(#paint4_radial_653_7857)"/>
</g>
<defs>
<linearGradient id="paint0_linear_653_7857" x1="168.622" y1="350.008" x2="189.418" y2="427.62" gradientUnits="userSpaceOnUse">
<stop stop-color="white"/>
<stop offset="1" stop-color="#F4FDFF" stop-opacity="0.76"/>
</linearGradient>
<linearGradient id="paint1_linear_653_7857" x1="323.803" y1="241.416" x2="331.643" y2="301.705" gradientUnits="userSpaceOnUse">
<stop stop-color="white"/>
<stop offset="1" stop-color="#F4FDFF" stop-opacity="0.76"/>
</linearGradient>
<linearGradient id="paint2_linear_653_7857" x1="866.252" y1="326.215" x2="857.063" y2="382.947" gradientUnits="userSpaceOnUse">
<stop stop-color="white"/>
<stop offset="1" stop-color="#F4FDFF" stop-opacity="0.76"/>
</linearGradient>
<radialGradient id="paint3_radial_653_7857" cx="0" cy="0" r="1" gradientUnits="userSpaceOnUse" gradientTransform="translate(732.545 238.993) rotate(90) scale(49.9398 49.9401)">
<stop offset="0.445" stop-color="#FFE178"/>
<stop offset="1" stop-color="#FFF387"/>
</radialGradient>
<radialGradient id="paint4_radial_653_7857" cx="0" cy="0" r="1" gradientUnits="userSpaceOnUse" gradientTransform="translate(732.545 238.993) rotate(90) scale(33.6551 33.6553)">
<stop stop-color="#FFE380"/>
<stop offset="1" stop-color="#FFCD1E"/>
</radialGradient>
</defs>
</svg>
